img/logo.svg

<svg width="94" height="21" viewBox="0 0 94 21" fill="none" xmlns="http://www.w3.org/2000/svg">
<path d="M13.6533 14.0996V17H2.66406V14.0996H13.6533ZM3.91016 14.0996V20.835H0.418945L0.161133 14.0996H3.91016ZM16.2207 14.0996L15.8232 20.8457H12.4395V14.0996H16.2207ZM12.0098 1.35938V4.27051H4.15723V1.35938H12.0098ZM14.5449 1.35938V17H10.7959V1.35938H14.5449ZM3.91016 1.35938H7.66992L7.20801 7.77246C7.12923 8.86816 7.00391 9.82064 6.83203 10.6299C6.66016 11.4391 6.45605 12.1374 6.21973 12.7246C5.9834 13.3118 5.72559 13.8167 5.44629 14.2393C5.16699 14.6618 4.87337 15.0306 4.56543 15.3457C4.26465 15.6608 3.96387 15.9473 3.66309 16.2051C3.3623 16.4629 3.07227 16.7279 2.79297 17H0.504883V14.0996H1.25684C1.47884 13.9421 1.70085 13.7308 1.92285 13.4658C2.15202 13.1937 2.36686 12.8249 2.56738 12.3594C2.7679 11.8939 2.94336 11.2887 3.09375 10.5439C3.24414 9.79915 3.35872 8.87533 3.4375 7.77246L3.91016 1.35938ZM30.4971 8.86816V9.50195C30.4971 10.6979 30.3288 11.7721 29.9922 12.7246C29.6628 13.6699 29.1937 14.4792 28.585 15.1523C27.9762 15.8184 27.2565 16.3304 26.4258 16.6885C25.5951 17.0394 24.6784 17.2148 23.6758 17.2148C22.666 17.2148 21.7422 17.0394 20.9043 16.6885C20.0736 16.3304 19.3503 15.8184 18.7344 15.1523C18.1257 14.4792 17.653 13.6699 17.3164 12.7246C16.987 11.7721 16.8223 10.6979 16.8223 9.50195V8.86816C16.8223 7.6722 16.987 6.59798 17.3164 5.64551C17.653 4.69303 18.1221 3.88379 18.7236 3.21777C19.3324 2.5446 20.0521 2.03255 20.8828 1.68164C21.7207 1.32357 22.6445 1.14453 23.6543 1.14453C24.6569 1.14453 25.5736 1.32357 26.4043 1.68164C27.2422 2.03255 27.9655 2.5446 28.5742 3.21777C29.1829 3.88379 29.6556 4.69303 29.9922 5.64551C30.3288 6.59798 30.4971 7.6722 30.4971 8.86816ZM26.6729 9.50195V8.84668C26.6729 8.07324 26.6048 7.3929 26.4688 6.80566C26.3398 6.21126 26.1465 5.71354 25.8887 5.3125C25.6309 4.91146 25.3122 4.61068 24.9326 4.41016C24.5602 4.20247 24.1341 4.09863 23.6543 4.09863C23.153 4.09863 22.7161 4.20247 22.3438 4.41016C21.9714 4.61068 21.6598 4.91146 21.4092 5.3125C21.1585 5.71354 20.9688 6.21126 20.8398 6.80566C20.7181 7.3929 20.6572 8.07324 20.6572 8.84668V9.50195C20.6572 10.2682 20.7181 10.9486 20.8398 11.543C20.9688 12.1302 21.1585 12.6279 21.4092 13.0361C21.667 13.4443 21.9821 13.7523 22.3545 13.96C22.734 14.1676 23.1745 14.2715 23.6758 14.2715C24.1556 14.2715 24.5817 14.1676 24.9541 13.96C25.3265 13.7523 25.638 13.4443 25.8887 13.0361C26.1465 12.6279 26.3398 12.1302 26.4688 11.543C26.6048 10.9486 26.6729 10.2682 26.6729 9.50195ZM41.3467 11.7041H45.1064C45.0563 12.7926 44.7627 13.7523 44.2256 14.583C43.6885 15.4137 42.9437 16.0618 41.9912 16.5273C41.0459 16.9857 39.9287 17.2148 38.6396 17.2148C37.5941 17.2148 36.6595 17.0394 35.8359 16.6885C35.0195 16.3376 34.3249 15.8327 33.752 15.1738C33.1862 14.515 32.7529 13.7165 32.4521 12.7783C32.1585 11.8402 32.0117 10.7839 32.0117 9.60938V8.76074C32.0117 7.58626 32.1657 6.52995 32.4736 5.5918C32.7887 4.64648 33.2327 3.8444 33.8057 3.18555C34.3857 2.51953 35.0804 2.01107 35.8896 1.66016C36.6989 1.30924 37.5977 1.13379 38.5859 1.13379C39.9466 1.13379 41.096 1.37728 42.0342 1.86426C42.9723 2.35124 43.6992 3.02083 44.2148 3.87305C44.7305 4.7181 45.0348 5.68132 45.1279 6.7627H41.3682C41.3538 6.17546 41.2536 5.6849 41.0674 5.29102C40.8812 4.88997 40.5876 4.58919 40.1865 4.38867C39.7855 4.18815 39.252 4.08789 38.5859 4.08789C38.1204 4.08789 37.7158 4.17383 37.3721 4.3457C37.0283 4.51758 36.7419 4.78971 36.5127 5.16211C36.2835 5.53451 36.1117 6.0179 35.9971 6.6123C35.8896 7.19954 35.8359 7.90853 35.8359 8.73926V9.60938C35.8359 10.4401 35.8861 11.1491 35.9863 11.7363C36.0866 12.3236 36.2477 12.8034 36.4697 13.1758C36.6917 13.5482 36.9782 13.8239 37.3291 14.0029C37.6872 14.1748 38.124 14.2607 38.6396 14.2607C39.2126 14.2607 39.696 14.1712 40.0898 13.9922C40.4837 13.806 40.7881 13.5267 41.0029 13.1543C41.2178 12.7747 41.3324 12.2913 41.3467 11.7041ZM53.5176 4.64648L49.7041 17H45.6543L51.4014 1.35938H53.9688L53.5176 4.64648ZM56.6758 17L52.8516 4.64648L52.3574 1.35938H54.957L60.7363 17H56.6758ZM56.5254 11.167V14.0781H48.501V11.167H56.5254ZM68.5137 4.64648L64.7002 17H60.6504L66.3975 1.35938H68.9648L68.5137 4.64648ZM71.6719 17L67.8477 4.64648L67.3535 1.35938H69.9531L75.7324 17H71.6719ZM71.5215 11.167V14.0781H63.4971V11.167H71.5215ZM82.9941 2.69141H86.9043C87.8496 2.69141 88.7197 2.84538 89.5146 3.15332C90.3096 3.46126 91.0007 3.90169 91.5879 4.47461C92.1751 5.04753 92.6299 5.73861 92.9521 6.54785C93.2744 7.3571 93.4355 8.2666 93.4355 9.27637C93.4355 10.2503 93.2744 11.1312 92.9521 11.9189C92.6299 12.7067 92.1751 13.3799 91.5879 13.9385C91.0007 14.4971 90.3096 14.9268 89.5146 15.2275C88.7197 15.5212 87.8496 15.668 86.9043 15.668H82.9941C82.0417 15.668 81.1644 15.5212 80.3623 15.2275C79.5602 14.9268 78.862 14.5007 78.2676 13.9492C77.6803 13.3906 77.222 12.721 76.8926 11.9404C76.5703 11.1527 76.4092 10.2718 76.4092 9.29785C76.4092 8.28809 76.5703 7.37858 76.8926 6.56934C77.222 5.76009 77.6803 5.06543 78.2676 4.48535C78.862 3.90527 79.5602 3.46126 80.3623 3.15332C81.1644 2.84538 82.0417 2.69141 82.9941 2.69141ZM82.9941 5.7207C82.4212 5.7207 81.9056 5.84961 81.4473 6.10742C80.9889 6.36523 80.6273 6.75911 80.3623 7.28906C80.0973 7.81185 79.9648 8.48145 79.9648 9.29785C79.9648 9.86361 80.0436 10.3577 80.2012 10.7803C80.3587 11.2028 80.5771 11.5501 80.8564 11.8223C81.1357 12.0944 81.458 12.2985 81.8232 12.4346C82.1885 12.5706 82.5788 12.6387 82.9941 12.6387H86.9258C87.4844 12.6387 87.9857 12.5169 88.4297 12.2734C88.8737 12.0228 89.2246 11.6468 89.4824 11.1455C89.7474 10.6442 89.8799 10.0212 89.8799 9.27637C89.8799 8.66764 89.8047 8.14128 89.6543 7.69727C89.5039 7.25326 89.2926 6.88444 89.0205 6.59082C88.7555 6.2972 88.444 6.07878 88.0859 5.93555C87.7279 5.79232 87.3411 5.7207 86.9258 5.7207H82.9941ZM86.7539 0.714844V17.6445H83.1338V0.714844H86.7539Z" fill="#13353F"/>
</svg>

<svg width="94" height="21" fill="none" xmlns="http://www.w3.org/2000/svg"><path d="M13.653 14.1V17H2.664v-2.9h10.99Zm-9.743 0v6.735H.42L.16 14.1h3.75Zm12.31 0-.397 6.746H12.44V14.1h3.78ZM12.01 1.36v2.91H4.157V1.36h7.853Zm2.535 0V17h-3.75V1.36h3.75Zm-10.635 0h3.76l-.462 6.412c-.079 1.096-.204 2.049-.376 2.858-.172.81-.376 1.507-.612 2.095a8.518 8.518 0 0 1-.774 1.514 7.487 7.487 0 0 1-.88 1.107c-.301.315-.602.601-.903.86-.3.257-.59.522-.87.794H.505v-2.9h.752a3.62 3.62 0 0 0 .666-.634c.229-.272.444-.641.644-1.107.2-.465.376-1.07.527-1.815.15-.745.265-1.669.344-2.772L3.91 1.36Zm26.587 7.508v.634c0 1.196-.168 2.27-.505 3.223-.33.945-.798 1.754-1.407 2.427a6.237 6.237 0 0 1-2.16 1.537c-.83.35-1.747.526-2.75.526-1.009 0-1.933-.176-2.77-.526a6.345 6.345 0 0 1-2.17-1.537c-.61-.673-1.082-1.482-1.419-2.427-.329-.953-.494-2.027-.494-3.223v-.634c0-1.196.165-2.27.494-3.222.337-.953.806-1.762 1.408-2.428a6.056 6.056 0 0 1 2.159-1.536c.838-.358 1.762-.537 2.771-.537 1.003 0 1.92.179 2.75.537.838.35 1.561.863 2.17 1.536.609.666 1.082 1.475 1.418 2.428.337.952.505 2.026.505 3.222Zm-3.824.634v-.655c0-.774-.068-1.454-.204-2.041-.13-.595-.323-1.092-.58-1.494a2.552 2.552 0 0 0-.956-.902 2.58 2.58 0 0 0-1.279-.311c-.501 0-.938.103-1.31.311-.373.2-.684.501-.935.902-.25.402-.44.9-.57 1.494a10.26 10.26 0 0 0-.182 2.04v.656c0 .766.061 1.447.183 2.041.129.587.319 1.085.57 1.493.257.408.572.716.945.924.379.208.82.311 1.32.311.48 0 .907-.103 1.28-.311.372-.208.683-.516.934-.924.258-.408.45-.906.58-1.493.136-.594.204-1.275.204-2.041Zm14.674 2.202h3.76c-.05 1.089-.344 2.048-.881 2.879-.538.83-1.282 1.479-2.235 1.944-.945.459-2.062.688-3.351.688-1.046 0-1.98-.176-2.804-.526a5.713 5.713 0 0 1-2.084-1.515c-.566-.659-1-1.457-1.3-2.396-.294-.938-.44-1.994-.44-3.169v-.848c0-1.175.154-2.231.462-3.17.315-.945.759-1.747 1.332-2.405A5.779 5.779 0 0 1 35.89 1.66c.809-.35 1.708-.526 2.696-.526 1.36 0 2.51.243 3.448.73.938.487 1.665 1.157 2.18 2.01.517.844.82 1.807.914 2.889h-3.76c-.014-.588-.114-1.078-.3-1.472a1.859 1.859 0 0 0-.881-.902c-.401-.2-.935-.301-1.601-.301-.466 0-.87.086-1.214.258-.344.172-.63.444-.86.816-.229.373-.4.856-.515 1.45-.107.588-.161 1.297-.161 2.127v.87c0 .831.05 1.54.15 2.127.1.588.262 1.067.484 1.44.222.372.508.648.86.827.357.172.794.258 1.31.258.573 0 1.056-.09 1.45-.269a2.03 2.03 0 0 0 .913-.838c.215-.38.33-.863.344-1.45Zm12.17-7.058L49.705 17h-4.05l5.747-15.64h2.568l-.451 3.286ZM56.677 17 52.852 4.646l-.495-3.287h2.6L60.737 17h-4.061Zm-.15-5.833v2.911H48.5v-2.911h8.024Zm11.988-6.52L64.7 17h-4.05l5.747-15.64h2.568l-.451 3.286ZM71.672 17 67.848 4.646l-.495-3.287h2.6L75.733 17h-4.061Zm-.15-5.833v2.911h-8.025v-2.911h8.025Zm11.472-8.476h3.91c.946 0 1.816.154 2.61.462a6.074 6.074 0 0 1 2.074 1.322 5.91 5.91 0 0 1 1.364 2.073c.322.81.484 1.719.484 2.728 0 .974-.162 1.855-.484 2.643a5.756 5.756 0 0 1-1.364 2.02 6.104 6.104 0 0 1-2.073 1.288c-.795.294-1.665.441-2.61.441h-3.91c-.953 0-1.83-.147-2.633-.44a6.28 6.28 0 0 1-2.094-1.279 5.903 5.903 0 0 1-1.375-2.009c-.323-.787-.484-1.668-.484-2.642 0-1.01.161-1.92.484-2.729a6.133 6.133 0 0 1 1.375-2.084 6.085 6.085 0 0 1 2.094-1.332c.802-.308 1.68-.462 2.632-.462Zm0 3.03a3.1 3.1 0 0 0-1.547.386c-.458.258-.82.652-1.085 1.182-.265.523-.397 1.192-.397 2.009 0 .566.079 1.06.236 1.482.158.423.376.77.655 1.042.28.272.602.477.967.613.366.136.756.204 1.171.204h3.932c.558 0 1.06-.122 1.504-.366.444-.25.795-.626 1.052-1.127.265-.502.398-1.125.398-1.87 0-.608-.075-1.135-.226-1.579a3.034 3.034 0 0 0-.633-1.106 2.492 2.492 0 0 0-.935-.655 3.095 3.095 0 0 0-1.16-.215h-3.932Zm3.76-5.006v16.93h-3.62V.715h3.62Z" fill="#13353F"/></svg>
